src/icons/solid/symbols/lock-locked.svg

<svg width="24" height="24" viewBox="0 0 24 24" fill="none" xmlns="http://www.w3.org/2000/svg">
<g clip-path="url(#clip0_402_681)">
<path d="M16.0341 9.52353C16.0341 9.78823 15.8224 10 15.5576 10H8.45294C8.18824 10 7.97647 9.78823 7.97647 9.52353V7.39529C7.97647 5.17176 9.77647 3.37176 12 3.37176C14.2235 3.37176 16.0341 5.17176 16.0341 7.39529V9.52353ZM19.1153 10H18.3953V7.39529C18.3953 3.85882 15.5365 1 12 1C8.46353 1 5.6153 3.85882 5.6153 7.39529V10H4.8953C3.85765 10 3 10.8471 3 11.8953V21.1153C3 22.1529 3.85765 23 4.8953 23H19.1153C20.1529 23 21 22.1529 21 21.1153V11.8953C21 10.8471 20.1529 10 19.1153 10ZM12.0106 18.5C10.8459 18.5 9.89294 17.5471 9.89294 16.3824C9.89294 15.2176 10.8459 14.2647 12.0106 14.2647C13.1753 14.2647 14.1282 15.2071 14.1282 16.3824C14.1282 17.5576 13.1859 18.5 12.0106 18.5Z" fill="#212121"/>
</g>
<defs>
<clipPath id="clip0_402_681">
<rect width="24" height="24" fill="white"/>
</clipPath>
</defs>
</svg>

<svg xmlns="http://www.w3.org/2000/svg" width="24" height="24" fill="none" viewBox="0 0 24 24"><g clip-path="url(#a)"><path fill="currentColor" d="M16.034 9.524a.474.474 0 0 1-.476.476H8.453a.474.474 0 0 1-.477-.476V7.395c0-2.223 1.8-4.023 4.024-4.023a4.03 4.03 0 0 1 4.034 4.023zm3.081.476h-.72V7.395A6.39 6.39 0 0 0 12 1a6.38 6.38 0 0 0-6.385 6.395V10h-.72A1.9 1.9 0 0 0 3 11.895v9.22C3 22.153 3.858 23 4.895 23h14.22A1.89 1.89 0 0 0 21 21.115v-9.22A1.89 1.89 0 0 0 19.115 10m-7.104 8.5a2.124 2.124 0 0 1-2.118-2.118 2.117 2.117 0 1 1 4.235 0 2.11 2.11 0 0 1-2.117 2.118"/></g><defs><clipPath id="a"><path fill="currentColor" d="M0 0h24v24H0z"/></clipPath></defs></svg>
